X:1
T:21.  Christ fuhr gen Himmel
T:Hugo Distler
T:Christoph Soell (15th cent.)
T:21.  Christ Rose to Heaven Christ fuhr gen Himmel Ascension
C:Hugo Distler
Z:Christoph Soell
Z:(15th cent.)
%%score [ ( 1 2 ) ( 3 4 ) 5 ]
L:1/8
Q:1/4=180
M:4/4
K:Bmin
V:1 treble nm="Sop. 1"
V:2 treble 
V:3 treble nm="Sop. 2"
V:4 treble 
V:5 treble nm="Alto"
V:1
"^Fast four" z4 z2!f! d2 | d2 B2 d2 d2- | !breath!d2 d2 d2 B2 |[M:6/4] (d3 cA"^(  )" B2 Bce c2- | %4
w: Christ|rose to heav- en.|_ Christ rose to|heav- * * * * * * *|
[M:4/4]!>(! c2 BA)!>)! !fermata!B2!p! B2 |[M:6/4] (B4 A2) B2 B2 =G2 | (F4 A4 G2) E2 | %7
w: * * * en. What|has _ He sent to|us _ _ be-|
[M:4/4] (D4 E4) | z4 z2!p! A2 | d4 B2 B2 |[M:3/4] e3 e e2 |[M:4/4] !breath!^d4 d2 e2- | %12
w: low? _|The|Spir- it to|com- fort us|here, to com-|
 e2 =d2 B2 B2 |[M:3/4] B4 A2 |[M:4/4] !breath!B2!mf! BB (d2 =c2- | %15
w: * fort us poor|Chris- tians|all. Hal- le- lu- *|
[M:6/4]!>(! cB A2)!>)! !fermata!B6"^Somewhat slower" z2 | z6!f! (e2 d2) B2 | (d3 e f2) !breath!e6 | %18
w: * * * ja!|Hal- * le-|lu- * * ja,|
 (d2 B2) A2 (G3 A B2) | !breath!A2 A2 A2 (B3 ^c d2) | !breath!c2 c2 c2 (d3 e f2 | %21
w: hal- * le- lu- * *|ja, hal- le- lu- * *|ja, hal- le- lu- * *|
 e2 d2 B2 d2) !breath!d4 |"^più"!f! (!>!d2 !>!B4) !>!d2 (!>!B2 !>!A2) | !>!!breath!G4 (e2 =c4) e2 | %24
w: * * * * ja!|Hal- * le- lu- *|ja, hal- * le-|
 (=c2 B2) !breath!A4 (f2 d2- |[M:4/4] d2) f2 (d2 ^c2) | %26
w: lu- * ja, hal- *|* le- lu- *|
[M:6/4] !breath!B2"^più"!f! A2 G2 (A3 B d2) |[M:7/4]"^Alla breve ( = previous )" e6 z8 | %28
w: ja, hal- le- lu- * *|ja!|
[M:2/2] z4 z2"^poco meno"!f! (e2 | c2) A2 B4 | !breath!B2 (e2 c2) A2 |[M:7/4]!>(! B4!>)! B2 z8 | %32
w: Hal-|* le- lu-|ja, hal- * le-|lu- ja!|
[M:2/2] z4 z2 (e2 | c2) A2 B4 | !breath!B2 (e2 c2) A2 | B4 !breath!B2 (e2 | c2) A2!>(! B4!>)! | %37
w: Hal-|* le- lu-|ja, hal- * le-|lu- ja, hal-|* le- lu-|
 B4 z4 ||[M:4/4]"^Tempo I ( = previous )" z4 z2!p! A2 | d2 d2 B2 B2 |[M:3/4] e4 e2 | %41
w: ja!|For|that we all re-|joice and|
[M:2/4] !breath!^d2 !>!e2- |[M:4/4] e2 =d2 B2 B2 |[M:3/4]!>(! B4!>)! !breath!A2 | %44
w: sing. Christ|_ shall be our|com- fort.|
[M:4/4]!p! B2 B2!>(! (d2 c2- | cB A2)!>)! !fermata!B4 |] %46
w: Hal- le- lu- *|* * * ja!|
V:2
 x8 | x8 | x8 |[M:6/4] x12 |[M:4/4] x8 |[M:6/4] x12 | x12 |[M:4/4] x8 | x8 | x8 |[M:3/4] x6 | %11
[M:4/4] x8 | x8 |[M:3/4] x6 |[M:4/4] x8 |[M:6/4] x12 | x12 | x12 | x12 | x12 | x12 | x12 | x12 | %23
 x12 | x12 |[M:4/4] x8 |[M:6/4] x12 |[M:7/4] B6 x8 |[M:2/2] x8 | x8 | x8 |[M:7/4] x14 |[M:2/2] x8 | %33
 x8 | x8 | x8 | x8 | x8 ||[M:4/4] x8 | x8 |[M:3/4] x6 |[M:2/4] x4 |[M:4/4] x8 |[M:3/4] x6 | %44
[M:4/4] x8 | x8 |] %46
V:3
 z2!f! F2 F2 F2 | A2 !breath!F4 F2 | F2 F2 A2 F2- |[M:6/4] !breath!F2 F2 F2 F2 A4 | %4
w: Christ rose to|heav- en. Christ|rose to heav- en.|_ Christ rose to heav-|
[M:4/4]!>(! (^G4!>)! !fermata!F4) |[M:6/4] z12 | z12 |[M:4/4] z4 z2!mp! E2 | A4 A2 E2 | %9
w: en. _|||The|Spir- it to|
 (D2 EF G4) |[M:3/4] G4 A2 |[M:4/4] !breath!B4 B2 B2- | B2 A2 B2 G2 |[M:3/4] F2 F2 !breath!E2 | %14
w: com- * * *|fort us|here, to com-|* fort us poor|Chris- tians all.|
[M:4/4]!mf! (F3 E) D2 (E2- |[M:6/4]!>(! E2!>)! F2) !fermata!^G2!f! (!>!B2"^(*)" !>!A2) !>!=G2 | %16
w: Hal- * le- lu-|* * ja! Hal- * le-|
 (!>!A3 !>!B !>!=c2) !>!!breath!B4 B2 | B2 A4 !breath!B4 B2 | B2 A4 !breath!B2 F2 F2 | %19
w: lu- * * ja, hal-|le- lu- ja, hal-|le- lu- ja, hal- le-|
 (E3 F G2) !breath!F2 A2 A2 | (^G3 A B2) !breath!A2 c2 c2 | (B3 A =G2) !breath!A4"^più"!f! (B2- | %22
w: lu- * * ja, hal- le-|lu- * * ja, hal- le-|lu- * * ja! Hal-|
 B2 A2) G2 (A3 B =c2) | !breath!B2 G2 E2 (G3 A B2 | A3 GAB) !breath!A2 d2 B2 | %25
w: * * le- lu- * *|ja, hal- le- lu- * *|* * * * ja, hal- le-|
[M:4/4] (d3 e f2) !breath!e2 |[M:6/4]"^più"!f! (d4 B2) d2 (B2 A2) |[M:7/4] G6 z8 | %28
w: lu- * * ja,|hal- le- * lu- *|ja!|
[M:2/2] z2"^poco meno"!f! (B2 G2) E2 | F4 !breath!^G2 (B2 | =G2) E2 F4 |[M:7/4]!>(! ^G6!>)! z8 | %32
w: Hal- * le-|lu- ja, hal-|* le- lu-|ja!|
[M:2/2] z2 (B2 =G2) E2 | F4 !breath!^G2 (B2 | =G2) E2 F4 | !breath!^G2 (B2 =G2) E2 | %36
w: Hal- * le-|lu- ja, hal-|* le- lu-|ja, hal- * le-|
 (F2 E3 F!>(!^GA) | ^G4!>)!!mp! E4 ||[M:4/4] A4 A2 E2 | D2 (EF G4) |[M:3/4] G2 G2 A2 | %41
w: lu- * * * *|ja! For|that we all,|we all _ _|re- joice and|
[M:2/4] !breath!B2 !>!B2- |[M:4/4] B2 A2 B2 G2 |[M:3/4]!>(! F4!>)! !breath!E2 | %44
w: sing. Christ|_ shall be our|com- fort.|
[M:4/4]!p! (F3 E) D2!>(! (E2- | E2 F2)!>)! !fermata!^G4 |] %46
w: Hal- * le- lu-|* * ja!|
V:4
 x8 | x8 | x8 |[M:6/4] x12 |[M:4/4] x8 |[M:6/4] x12 | x12 |[M:4/4] x8 | x8 | x8 |[M:3/4] x6 | %11
w: |||||||||||
w: |||||||||||
[M:4/4] F4 x4 | x8 |[M:3/4] x6 |[M:4/4] x8 |[M:6/4] x12 | x12 | x12 | x12 | x12 | x12 | x6 F6 | %22
w: |||||||||||
w: ||||||||||ja!|
 B2 A2 G2 A3 B =c2 | B2 x10 | x12 |[M:4/4] x8 |[M:6/4] x12 |[M:7/4] x14 |[M:2/2] x8 | x8 | x8 | %31
w: |||||||||
w: Hal- * le- lu- * *|ja,||||||||
[M:7/4] x14 |[M:2/2] x8 | x8 | x8 | x8 | x8 | x8 ||[M:4/4] x8 | x8 |[M:3/4] x6 |[M:2/4] x4 | %42
w: |||||||||||
w: |||||||||||
[M:4/4] x8 |[M:3/4] x6 |[M:4/4] x8 | x8 |] %46
w: ||||
w: ||||
V:5
"^più"!f! B,8 | A,4 B,4 | (D4 E4 |[M:6/4] B,12) |[M:4/4] !fermata!B,8 |[M:6/4]!>(! z12!>)! | z12 | %7
w: Christ|rose to|heav- *||en.|||
[M:4/4] z8 | z2!p! A,2 =C4 | B,2 B,2 E4 |[M:3/4] D2 =C4 |[M:4/4] !breath!B,4 B,2 G2- | %12
w: |The Spir-|it to com-|fort us|here, to com-|
 G2 F2 E2 E2 |[M:3/4] D2 D2 !breath!=C2 |[M:4/4]!mf! B,4 B,2 A,2- | %15
w: * fort us poor|Chris- tians all.|Hal- le- lu-|
[M:6/4]!>(! A,4!>)! !fermata!E6 z2 | z12 | z6!f! (E2 D2) B,2 | (D3 E F2) !breath!E4 D2 | %19
w: * ja!||Hal- * le-|lu- * * ja, hal-|
 D2 =C4 !breath!B,4 F2 | F2 E4 !breath!F4 A2 | A2 G4 D6 | z12 |"^più"!f! (G2 E4) G2 (E2 D2) | %24
w: le- lu- ja, hal-|le- lu- ja, hal-|le- lu- ja!||Hal- * le- lu- *|
 !breath!=C4 (A2 F4) A2 |[M:4/4] (F2 E2) !breath!D4 |[M:6/4]"^più"!f! !>!B4 (!>!G2 !>!E2) !>!F4 | %27
w: ja, hal- * le-|lu- * ja!|Hal- le- * lu-|
[M:7/4] !>!!breath!E2"^poco meno"!f! (B3 A G2) E2 F4 |[M:2/2]!>(! E8-!>)! | E8- | E8- | %31
w: ja, hal- * * le- lu-|ja,|_||
[M:7/4] !breath!E2 (B3 A G2) E2 F4 |[M:2/2] E8- | E4 z2 E2- | E2 C2 A,4 | !breath!E2 E4 C2 | %36
w: * hal- * * le- lu-|ja,|_ hal-|* le- lu-|ja, hal- le-|
 A,4 E4- |!>(! E4!>)! z4 ||[M:4/4] z2!p! A,2 =C2 C2 | B,2 B,2 (E4 |[M:3/4] D2) =C4 | %41
w: lu- ja!|_|For that we|all re- joice|_ and|
[M:2/4] !breath!B,2 !>!G2- |[M:4/4] G2 F2 E2 E2 |[M:3/4]!>(! D4!>)! !breath!=C2 | %44
w: sing. Christ|_ shall be our|com- fort.|
[M:4/4]!p! B,4 B,2!>(! A,2- | A,4!>)! !fermata!E4 |] %46
w: Hal- le- lu-|* ja!|

